!!!COM: Bach, Johann Sebastian
!!!CDT: 1685/3//-1750/7/28/
!!!OTL@@DE: Nun danket alle Gott
!!!OTL@EN:  From the depths of my heart
!!!AGN: 4-Part Chorale
!!!SCT: BH 032
!!!SCT: BWV 386
**harm	**root	**kern	**kern	**kern	**kern
!	!	!bass	!tenor	!alto	!soprno
*	*Iorgan	*Iorgan	*Iorgan	*Iorgan	*Iorgan
*M4/4	*M4/4	*M4/4	*M4/4	*M4/4	*M4/4
*met(c)	*met(c)	*met(c)	*met(c)	*met(c)	*met(c)
*MM60	*MM60	*MM60	*MM60	*MM60	*MM60
*k[f#c#g#d#a#]	*k[f#c#g#d#a#]	*k[f#c#g#d#a#]	*k[f#c#g#d#a#]	*k[f#c#g#d#a#]	*k[f#c#g#d#a#]
*B:	*B:	*B:	*B:	*B:	*B:
*>[A,A,B]	*>[A,A,B]	*>[A,A,B]	*>[A,A,B]	*>[A,A,B]	*>[A,A,B]
*>A	*>A	*>A	*>A	*>A	*>A
I	4AA	4BB	4d#	4b	4ff#
=1	=1	=1	=1	=1	=1
I	4AA	8B	4d#	4b	4ff#
.	.	8c#	.	.	.
Ib	4AA	8d#	4d#	4b	4ff#
.	.	8B	.	.	.
IV	4DD	8E	4e	4b	4gg#
.	.	8F#	.	.	.
IVb	4DD	8G#	4e	4b	4gg#
.	.	8E	.	.	.
=2	=2	=2	=2	=2	=2
I;	2AA;	2B;	2d#;	2b;	2ff#;
r	4r	4r	4r	4r	4r
vib	4FF#	4B	4g#	4b	4dd#
=3	=3	=3	=3	=3	=3
V7b	4EE	4A#	4f#	4cc#	4ee
I	4AA	4B	4f#	4b	4dd#
V7	4EE	8F#	4f#	4a#	4cc#
.	.	8E	.	.	.
Ib	4AA	8D#	4f#	4b	8.dd#
.	.	8BB	.	.	.
.	.	.	.	.	16ee
=4	=4	=4	=4	=4	=4
V7	2EE	2F#	8f#	8b	2cc#
.	.	.	16e	8g#	.
.	.	.	16d#	.	.
.	.	.	4e	4a#	.
I;	4AA;	4BB;	4d#;	4f#;	4b;
=:|!	=:|!	=:|!	=:|!	=:|!	=:|!
*>B	*>B	*>B	*>B	*>B	*>B
V	4EE	4F#	8c#	8a#	4cc#
.	.	.	8B	8g#	.
=5	=5	=5	=5	=5	=5
V	4EE	8F#	8A#	4f#	4cc#
.	.	8G#	8B	.	.
Vb	4EE	8A#	4c#	4f#	4cc#
.	.	8F#	.	.	.
I	4AA	8BB	8c#	4f#	4dd#
.	.	8C#	16B	.	.
.	.	.	16A#	.	.
Ib	4AA	8D#	4B	4f#	4dd#
.	.	8BB	.	.	.
!!linebreak: 2
=6	=6	=6	=6	=6	=6
V;	2EE;	2FF#;	2A#;	2f#;	2cc#;
r	4r	4r	4r	4r	4r
V	4EE	4F#	4f#	4a#	4cc#
=7	=7	=7	=7	=7	=7
I	4AA	8B	4f#	4b	8dd#
.	.	8c#	.	.	8ee#
iii	4CC#	8d#	4f#	4a#	4ff#
.	.	8A#	.	.	.
vi7b	4FF#	8B	4d#	4g#	4ff#
.	.	8G#	.	.	.
V/V	4BB	8c#	4c#	4g#	4ee#
.	.	8C#	.	.	.
=8	=8	=8	=8	=8	=8
V;	2EE;	2F#;	2c#;	2a#;	2ff#;
r	4r	4r	4r	4r	4r
I	4AA	4BB	4d#	4b	4ff#
=9	=9	=9	=9	=9	=9
IV	4DD	8E	4e	8b	4gg#
.	.	8D#	.	8cc#	.
vii/ii	4AA#	8C#	4d#	4dd#	4ff#
.	.	8BB#	.	.	.
ii	4BB	8C#	4g#	8dd#	4ee
.	.	8E	.	4cc#	.
iiio7b	8CC#	8F#	8a	.	4dd#
V/ii	8FF#	8G#	8g#	8b#	.
=10	=10	=10	=10	=10	=10
ii;	2BB;	2C#;	2g#;	2cc#;	2ee;
r	4r	4r	4r	4r	4r
Ib	4AA	8D#	4f#	4b	4dd#
.	.	8E	.	.	.
=11	=11	=11	=11	=11	=11
V	4EE	4F#	4f#	4a#	4cc#
I	8AA	8B	8f#	4b	8.dd#
vi	8FF#	8G#	8g#	.	.
.	.	.	.	.	16ee
ii7b	4BB	8E	8g#	4b	4.cc#
.	.	8C#	8e	.	.
V	4EE	8F#	8.c#	4a#	.
.	.	8FF#	.	.	8b
.	.	.	16f#	.	.
=12	=12	=12	=12	=12	=12
I;	2.AA;	2.BB;	2.d#;	2.f#;	2.b;
==	==	==	==	==	==
*-	*-	*-	*-	*-	*-
!!chor2scor: -l 2 -s 0.6 -o %b.pmx
!!!YEC: Copyright 1994, David Huron
!!!YEC: Changes/Additions 2001 by Craig Stuart Sapp
!!!YEN: United States of America
!!!SMA: 371 Bach Chorales, edited by Ludwig Erk, C.F. Peters
!!!PDT: 1850, 1865
!!!ONB: Harmony and Root analysis done manually
